src/assets/images/import-data.svg

<svg fill="none" height="23" viewBox="0 0 22 23" width="22" xmlns="http://www.w3.org/2000/svg"><g stroke="#8d59e2" stroke-linejoin="round"><path d="m5.20862 11.9727v-8.55628c0-.56732.22536-1.1114.62652-1.51255.40115-.40116.94524-.62653 1.51256-.62653h7.4868l5.3477 5.3477v11.76496c0 .5673-.2254 1.1114-.6266 1.5125-.4011.4012-.9452.6265-1.5125.6265h-5.8825m-10.1606-2.139h7.48677m0 0-3.20861-3.2086m3.20861 3.2086-3.20861 3.2086"/><path d="m13.4082 2.70337v4.27816c0 .28366.1127.5557.3133.75627.2005.20058.4726.31327.7562.31327h4.2782"/></g></svg>

<svg width="22" height="23" viewBox="0 0 22 23" fill="none" xmlns="http://www.w3.org/2000/svg">
<path d="M5.20862 11.9727V3.41642C5.20862 2.8491 5.43398 2.30502 5.83514 1.90387C6.23629 1.50271 6.78038 1.27734 7.3477 1.27734H14.8345L20.1822 6.62504V18.39C20.1822 18.9573 19.9568 19.5014 19.5556 19.9025C19.1545 20.3037 18.6104 20.529 18.0431 20.529H12.1606M2 18.39H9.48677M9.48677 18.39L6.27816 15.1814M9.48677 18.39L6.27816 21.5986" stroke="#8D59E2" strokeWidth="2.13908" strokeLinecap="round" stroke-linejoin="round"/>
<path d="M13.4082 2.70337V6.98153C13.4082 7.26519 13.5209 7.53723 13.7215 7.7378C13.922 7.93838 14.1941 8.05107 14.4777 8.05107H18.7559" stroke="#8D59E2" strokeWidth="2.13908" strokeLinecap="round" stroke-linejoin="round"/>
</svg>
